X: 11903
T: Emma's Slip
R: slip jig
M: 9/8
K: Fmajor
|:F2 A c2 f|efg fcA|B2 G AGF|EFG CDE|
F2 A c2 f|efg fcA|Bdc BAG|1 AGE CDE:|2 CFE F2 A||
|:BAG DGB|DGB dcB|AFD CA,C|FGA cBA|
BAG DGB|DGB Bcd|fed cAF|1 CFE FGA:|2 BAG EFG||

